X:119
T:Free Brittons
M:C |
L:1/8
B:Thompson's Compleat Collection of 200 Favourite Country Dances, vol. 2 (London, 1765)
Z:Transcribed and edited by Flynn Titford-Mock, 2007
Z:abc's:AK/Fiddler's Companion
K:G
GBGB AcAc | GBGB A(D D2) | GBGB cAcA | dBcA G[G,G]-[G,2G2] :|
|: BdBd cece | BdBd c(A A2) | BdBd ecge | dBcA G[G,G]-[G,2G2] :|

